packages/icons/svg/Fill/menu-2.svg

<svg width="24" height="24" viewBox="0 0 24 24" fill="none" xmlns="http://www.w3.org/2000/svg">
<g id="Icon/Fill/menu-2">
<path id="Mask" fill-rule="evenodd" clip-rule="evenodd" d="M3.9355 6H20.0645C20.5795 6 21.0005 6.421 21.0005 6.936V7.064C21.0005 7.579 20.5795 8 20.0645 8H3.9355C3.4205 8 3.0005 7.579 3.0005 7.064V6.936C3.0005 6.421 3.4205 6 3.9355 6ZM5 12C5 12.553 4.552 13 4 13C3.448 13 3 12.553 3 12C3 11.447 3.448 11 4 11C4.552 11 5 11.447 5 12ZM7.9355 11H20.0645C20.5795 11 21.0005 11.421 21.0005 11.936V12.064C21.0005 12.579 20.5795 13 20.0645 13H7.9355C7.4205 13 7.0005 12.579 7.0005 12.064V11.936C7.0005 11.421 7.4205 11 7.9355 11ZM20.0645 16H3.9355C3.4205 16 3.0005 16.421 3.0005 16.936V17.064C3.0005 17.579 3.4205 18 3.9355 18H20.0645C20.5795 18 21.0005 17.579 21.0005 17.064V16.936C21.0005 16.421 20.5795 16 20.0645 16Z" fill="#000000"/>
</g>
</svg>

<svg fill="none" height="24" viewBox="0 0 24 24" width="24" xmlns="http://www.w3.org/2000/svg"><path clip-rule="evenodd" d="m3.9355 6h16.129c.515 0 .936.421.936.936v.128c0 .515-.421.936-.936.936h-16.129c-.515 0-.935-.421-.935-.936v-.128c0-.515.42-.936.935-.936zm1.0645 6.0001c0 .553-.448 1-1 1s-1-.447-1-1 .448-1 1-1 1 .447 1 1zm2.9355-1h12.129c.515 0 .936.421.936.936v.128c0 .515-.421.936-.936.936h-12.129c-.515 0-.935-.421-.935-.936v-.128c0-.515.42-.936.935-.936zm12.129 4.9998h-16.129c-.515 0-.935.421-.935.936v.128c0 .515.42.936.935.936h16.129c.515 0 .936-.421.936-.936v-.128c0-.515-.421-.936-.936-.936z" fill="#6b7280" fill-rule="evenodd"/></svg>
